svg/u00A9.svg

<svg viewBox="0 0 2600 2760.837" xmlns="http://www.w3.org/2000/svg"><path d="M2201.5 1943q-139.5 241-380.5 380.5t-521 139.5q-285 0-529-144.5t-378.5-384.5-134.5-512q0-278 140-520t382-382 520-140q272 0 512 134.5t384.5 378.5 144.5 529q0 280-139.5 521z m-86.5-991.5q-126-217.5-344-344.5t-471-127q-252 0-470.5 126.5t-345 344.5-126.5 471 127 471 345 344 470 126q253 0 470.5-126.5t344-344 126.5-470.5-126-470.5z m-316 937.5q0 2 1 6 0 16-78.5 66.5t-173 77.5-204.5 27q-288 0-475.5-183t-187.5-461q0-279 187.5-461.5t475.5-182.5q134 0 242.5 33t191.5 99q6 5 6 11 0 4-2 7l-148 270q-3 6-9 6h-6q-6 0-24.5-15.5t-89.5-43-160-27.5q-136 0-225.5 84.5t-89.5 219.5q0 134 89 219t226 85q75 0 158.5-31t112.5-53.5 39-22.5q6 0 10 7z"/></svg>

<svg viewBox="0 0 2600 2760.837" xmlns="http://www.w3.org/2000/svg"><path d="M2201.5 1943Q2062 2184 1821 2323.5T1300 2463q-285 0-529-144.5T392.5 1934 258 1422q0-278 140-520t382-382 520-140q272 0 512 134.5T2196.5 893t144.5 529q0 280-139.5 521zM2115 951.5Q1989 734 1771 607t-471-127q-252 0-470.5 126.5T484.5 951 358 1422t127 471 345 344 470 126q253 0 470.5-126.5t344-344T2241 1422t-126-470.5zM1799 1889q0 2 1 6 0 16-78.5 66.5t-173 77.5-204.5 27q-288 0-475.5-183T681 1422q0-279 187.5-461.5T1344 778q134 0 242.5 33t191.5 99q6 5 6 11 0 4-2 7l-148 270q-3 6-9 6h-6q-6 0-24.5-15.5t-89.5-43-160-27.5q-136 0-225.5 84.5T1030 1422q0 134 89 219t226 85q75 0 158.5-31t112.5-53.5 39-22.5q6 0 10 7z"/></svg>
